X:20
T:Guillau prend ton tambourin
R:chanson
M:4/4
L:1/4
Q:2/4=100
Z:<anamnese@laposte.net>
K:Bb
GG|ddcd|BA/B/cA|d2B2|A2AB|A^FGA|B2G/A/B/c/|d2c/d/c/B/|
A2AB|A^FGA|BA/B/cA|d2A2|G4 :|
